!!!SOCIAL_FUNCTION:	bird dance songs
!!!PDT:	1956
!!!OTL: No_167_Hair_Dance_Song_(e).krn
!!!LANG: Non-Tone
!!!LING_GROUP: Muskogean
!!!REG: Florida
**kern
*staff1
=1-
*clefF4
*k[f#c#g#d#]
*M2/4
4E\
4B\
=2
8c#\L
8B\J
8G#\L
8G#\J
=3
4B\
4G#\
=4||
*M3/4
2G#\
4B\
=5||
*M2/4
8G#\L
8F#\J
4E\
=6
4C#/
4E\
=7||
*M7/8
(8C#/L
8BB/)
(8C#/
8BB/)
8GG#/
8GG#/
8GG#/J
=8||
*M2/4
8BB/L
8BB/J
8BB/
8r
=9||
*M3/4
8C#/L
8BB/J
8E\L
8E\J
8C#/L
8BB/J
=10||
*M2/4
4GG#/
4r
=11
8BB/L
8BB/J
4BB/
=12
4BB/
4B\
=13
8c#\L
8B\J
8c#\L
8B\J
=14||
*M3/4
4G#\
4B\
8G#\L
8G#\J
=15
2G#\
4B\
=16||
*M2/4
(8G#\L
8F#\J)
(8F#\L
8E\J)
=17
4C#/
4E\
=18
(8C#/L
8BB/J)
(8C#/L
8BB/J)
=19
4GG#/
4BB/
=20
4BB/
4r
=21
4C#/
4E\
=22
8C#/L
8BB/J
4GG#/
=23
4BB/
4r
=24
4BB/
4r
=25
2r
=26
(8C#/L
8BB/J)
(8C#/L
8BB/J)
=27
4GG#/
4BB/
=28
4BB/
4r
==
*-
